source/img/svg/play-button-2.svg

<svg width="70" height="50" viewBox="0 0 70 50" fill="none" xmlns="http://www.w3.org/2000/svg">
<path d="M0 12C0 5.37258 5.37258 0 12 0H58C64.6274 0 70 5.37258 70 12V38C70 44.6274 64.6274 50 58 50H12C5.37258 50 0 44.6274 0 38V12Z" fill="#FF0000"/>
<path d="M28.9924 16.7321C28.9924 15.9623 29.8257 15.4811 30.4924 15.866L45.4924 24.5263C46.1591 24.9112 46.1591 25.8734 45.4924 26.2583L30.4924 34.9186C29.8257 35.3035 28.9924 34.8224 28.9924 34.0526L28.9924 16.7321Z" fill="white"/>
</svg>

<svg width="70" height="50" fill="none" xmlns="http://www.w3.org/2000/svg"><path d="M0 12C0 5.373 5.373 0 12 0h46c6.627 0 12 5.373 12 12v26c0 6.627-5.373 12-12 12H12C5.373 50 0 44.627 0 38V12z" fill="red"/><path d="M28.992 16.732a1 1 0 011.5-.866l15 8.66a1 1 0 010 1.732l-15 8.66a1 1 0 01-1.5-.865v-17.32z" fill="#fff"/></svg>
